X: 28511
T: Munster Buttermilk
R: jig
M: 6/8
K: Gmajor
|:d2 f edB|BAF FEF|ADD DFA|BAF DFA|
d2 f edB|BAF FEF|ADD DEF|EDD D3:|
|:BAF AAd|efa ffe|fge edB|ddd edB|
AFA d2 e|faf fed|edB Adf|edd d3:|

